X:1
T:He Is Mine, I Am His
T:He Is Mine, I Am His
T:Charles Hutchinson Gabriel
T:Grace Elizabeth Cobb, 1894
T:Public Domain Courtesy of the Cyber Hymnal™
T:Public Domain Courtesy of the Cyber Hymnal™
C:Charles Hutchinson Gabriel
Z:Public Domain
Z:Courtesy of the Cyber Hymnal™
%%score ( 1 2 ) ( 3 4 )
L:1/8
Q:1/4=95
M:4/4
K:Eb
V:1 treble 
V:2 treble 
V:3 bass 
V:4 bass 
V:1
 E[EF] | [EG][EG][EG][EA] [EG][EF]E[EG] | [GB]2 [Ge]2 [Ac]2 [Ac]>[Ac] | [GB]6 [EG]>[EG] | %4
w: 1.~Bless- èd|Li- ly of the Val- ley, oh, how|fair is He! He is|mine, I am|
w: 2.~Let me|sing of all His me- rcies, of His|kind- ness true, He is|mine, I am|
w: 3.~Tho’ He|lead me thro’ the val- ley of the|shade of death, He is|mine, I am|
 [DF]6 E[DF] | [EG][EG][EG][EA] [EG][EF]E[EG] | [GB]2 [Ge]2 [Ac]2 [Ac]>[Ac] | [GB]6 [EG]>[DF] | %8
w: His; Sweet- er|than the an- gel’s mu- sic is His|voice to me, He is|mine, I am|
w: His; Fresh at|morn, and in the ev- ening comes a|bless- ing new, He is|mine, I am|
w: His; Should I|fear, when oh, so ten- der- ly He|whis- per- eth, He is|mine, I am|
 E6 E[_DE] | [CE][Ec][Ec][Ec] | [Ec][Ec]E[Ec] | [EB]2 [EB]2 [EB]2 [EG][EB] | %12
w: His. Where the|lil- ies fair are|bloom- ing by the|wa- ter calm, There He|
w: His! With the|deep- ening sha- dows|comes a whis- per,|“Safe- ly rest! Sleep in|
w: His; For the|sun- shine of His|pre- sence doth il-|lume the night, And He|
 [DB][DF][DF][DF] [DF][DF]E[DF] | [EG]2 [GB]2 [GB]2 E[_DE] | [CE][Ec][Ec][Ec] [Ec][Ec]E[Ec] | %15
w: leads me and up- holds me by His|strong right arm; All the|air is love a- round me, I can|
w: peace, for I am near thee, naught shall|thee mo- lest; I will|lin- ger till the morn- ing, keep- er,|
w: leads me thro’ the val- ley to the|moun- tain height; Out of|bon- dage in- to free- dom, in- to|
 [EB]2 [EB]2 [EB]2 [GB]>[Ac] | [GB]6 [EG]>[DF] | E6 z2 ||"^Refrain" e3 [Af] [Ge][Ac][GB][EG] | %19
w: feel no harm, He is|mine, I am|His.||
w: friend and guest,” He is|mine, I am|His.|Li- ly of the val- ley,|
w: cloud- less light, He is|mine, I am|His.||
 B3 [Ac] B4 | c3 [_Ac] [=Ac][Ae][Fd][Fc] | [Fd]2 [Ec]2 [DB]2 E[DF] | %22
w: |||
w: He is mine!|Li- ly of the val- ley|I am His! Sweet- er|
w: |||
 [EG][EG][EG][EA] [EG][EF]E[EG] | [GB]2 [Ge]2 [Ac]2 [Ac]>[Ac] | [GB]6 [EG]>[DF] | E6 |] %26
w: ||||
w: than the an- gel’s mu- sic is His|voice to me, He is|mine, I am|His.|
w: ||||
V:2
 E x | x6 E x | x8 | x8 | x6 E x | x6 E x | x8 | x8 | E6 E x | x4 | x2 E x | x8 | x6 E x | x6 E x | %14
 x6 E x | x8 | x8 | E6 x2 || (GGG) x5 | (GGF) (G G G2) x | (=AAA) x5 | x6 E x | x6 E x | x8 | x8 | %25
 E6 |] %26
V:3
 [E,G,][E,A,] | [E,B,][E,B,][E,B,][E,C] [E,B,][E,A,][E,G,][E,B,] | [E,E]2 [E,E]2 [E,E]2 z2 | %3
w: ~ ~|~ ~ ~ ~ ~ ~ ~ ~|~ ~ ~|
 z2 ([E,E]>[E,E] [E,B,]2) z2 | z2 ([B,,B,]3/2 [B,,B,]/ B,2) [G,B,][F,B,] | %5
w: ~ * *|~ * * ~ ~|
 [E,B,][E,B,][E,B,][E,C] [E,B,][E,A,][E,G,][E,B,] | [E,E]2 [E,E]2 [A,E]2 z2 | %7
w: ~ ~ ~ ~ ~ ~ ~ ~|~ ~ ~|
 z2 ([E,E]>[E,E] [B,,E]2) [B,,B,]>[B,,B,] | [E,G,]6 [E,G,][E,G,] | [A,,A,][A,,A,][A,,A,][A,,A,] | %10
w: ~ * * ~ ~|~ ~ ~|~ ~ ~ ~|
 [A,,A,][A,,A,][A,,C][A,,A,] | [E,G,]2 [E,G,]2 [E,G,]2 [E,B,][E,G,] | %12
w: ~ ~ ~ ~|~ ~ ~ ~ ~|
 [B,,F,][B,,B,][B,,B,][B,,B,] [B,,B,][B,,A,][B,,G,][B,,B,] | [E,B,]2 [E,E]2 [E,E]2 [E,G,][E,G,] | %14
w: ~ ~ ~ ~ ~ ~ ~ ~|~ ~ ~ ~ ~|
 [A,,A,][A,,A,][A,,A,][A,,A,] [A,,A,][A,,A,][A,,C][A,,A,] | [E,G,]2 [E,G,]2 [E,G,]2 z2 | %16
w: ~ ~ ~ ~ ~ ~ ~ ~|~ ~ ~|
 z2 ([E,E]>[E,E] [B,,E]2) [B,,B,]>[B,,A,] | [E,G,]6 z2 || %18
w: ~ * * ~ ~|~|
 [E,B,][E,B,][E,B,][E,B,] [E,B,][E,C][E,E][E,B,] | [E,E][E,E][B,,D][B,,D] [E,E][E,E] [E,E]2 | %20
w: Bless- èd Li- ly of the val- ley,|Hal- le- lu- jah, He is mine!|
 [A,E][A,E][A,E][A,E] [F,E][F,C][F,B,][F,=A,] | B,2 [F,=A,]2 B,2 [G,B,][F,B,] | %22
w: Bless- èd Li- ly of the val- ley,||
 [E,B,][E,B,][E,B,][E,C] [E,B,][E,A,][E,G,][E,B,] | [E,E]2 [E,E]2 [A,E]2 z2 | %24
w: ||
 z2 [E,E]>[E,E] [B,,E]2 [B,,B,]>[B,,B,] | [E,G,]6 |] %26
w: ||
V:4
 x2 | x8 | x8 | x8 | x4 (B,A,) x2 | x8 | x8 | x8 | x8 | x4 | x4 | x8 | x8 | x8 | x8 | x8 | x8 | %17
 x8 || x8 | x8 | x8 | B,2 (B,=A,) x4 | x8 | x8 | x8 | x6 |] %26

